; generated by PrusaSlicer 2.8.1 on 2024-09-30 at 16:48:58 UTC


;
;
; 

; external perimeters extrusion width = 0.45mm
; perimeters extrusion width = 0.45mm
; infill extrusion width = 0.45mm
; solid infill extrusion width = 0.45mm
; top infill extrusion width = 0.40mm
; support material extrusion width = 0.35mm
; first layer extrusion width = 0.42mm

M73 P0 R32
M73 Q0 S32
M201 X1000 Y1000 Z200 E5000 ; sets maximum accelerations, mm/sec^2
M203 X200 Y200 Z12 E120 ; sets maximum feedrates, mm / sec
M204 S1250 T1250 ; sets acceleration (S) and retract acceleration (R), mm/sec^2
M205 X8.00 Y8.00 Z0.40 E4.50 ; sets the jerk limits, mm/sec
M205 S0 T0 ; sets the minimum extruding and travel feed rate, mm/sec

; printing object plug-Part.stl id:0 copy 0
; stop printing object plug-Part.stl id:0 copy 0

;TYPE:Custom
M862.3 P "MK3S" ; printer model check
M862.1 P0.4 ; nozzle diameter check
M115 U3.14.0 ; tell printer latest fw version
G90 ; use absolute coordinates
M83 ; extruder relative mode
M104 S255 ; set extruder temp
M140 S100 ; set bed temp
M190 S100 ; wait for bed temp
M109 S255 ; wait for extruder temp
G28 W ; home all without mesh bed level
G80 X107.578 Y87.5784 W34.8433 H34.8433 ; mesh bed levelling

G1 Z0.2 F720
G1 Y-3 F1000 ; go outside print area
G92 E0
G1 X60 E9 F1000 ; intro line
G1 X100 E12.5 F1000 ; intro line
M73 P0 R31
M73 Q0 S31

G92 E0
M221 S95

; Don't change E values below. Excessive value can damage the printer.

M907 E538 ; set extruder motor current
G21 ; set units to millimeters
G90 ; use absolute coordinates
M83 ; use relative distances for extrusion

M900 K0.04 ; Filament gcode LA 1.5
M900 K20 ; Filament gcode LA 1.0




M107
;LAYER_CHANGE
;Z:0.2
;HEIGHT:0.2
G1 E-.8 F2100
G1 Z.6 F720
G1 X110.936 Y93.133 F10800
G1 Z.2 F720
G1 E.8 F2100
M204 S800
;TYPE:Skirt/Brim
;WIDTH:0.42
G1 F1200
G1 X113.243 Y90.825 E.10232
G1 X113.91 Y90.345 E.02577
G1 X118.524 Y88.038 E.16174
G1 X119.671 Y87.767 E.03695
G1 X130.329 Y87.767 E.33417
G1 X131.476 Y88.038 E.03695
G1 X136.09 Y90.345 E.16174
G1 X136.757 Y90.825 E.02577
G1 X139.175 Y93.243 E.10722
G1 X139.655 Y93.91 E.02577
G1 X141.962 Y98.524 E.16174
G1 X142.233 Y99.671 E.03695
G1 X142.233 Y110.194 E.32994
G1 X141.962 Y111.341 E.03695
G1 X139.655 Y115.956 E.16177
G1 X138.986 Y116.867 E.03544
G1 X136.679 Y119.175 E.10232
G1 X136.012 Y119.655 E.02577
G1 X131.398 Y121.962 E.16174
G1 X130.251 Y122.233 E.03695
G1 X119.671 Y122.233 E.33173
G1 X118.524 Y121.962 E.03695
G1 X113.91 Y119.655 E.16174
G1 X113.243 Y119.175 E.02577
G1 X110.936 Y116.867 E.10232
G1 X110.345 Y116.09 E.03061
G1 X108.038 Y111.476 E.16174
G1 X107.767 Y110.329 E.03695
G1 X107.767 Y99.671 E.33417
G1 X108.038 Y98.524 E.03695
G1 X110.345 Y93.91 E.16174
G1 X110.9 Y93.18 E.02875
M204 S1000
G1 X110.9 Y93.18 F10800
G1 X111.196 Y93.408
M204 S800
G1 F1200
G1 X111.203 Y93.399 E.00036
G1 X113.51 Y91.092 E.1023
G1 X114.078 Y90.682 E.02196
G1 X118.693 Y88.375 E.16177
G1 X119.671 Y88.144 E.03151
G1 X130.329 Y88.144 E.33417
G1 X131.307 Y88.375 E.03151
G1 X135.922 Y90.682 E.16177
G1 X136.49 Y91.092 E.02196
G1 X138.908 Y93.51 E.10722
G1 X139.318 Y94.078 E.02196
G1 X141.625 Y98.693 E.16177
G1 X141.856 Y99.671 E.03151
G1 X141.856 Y110.194 E.32994
G1 X141.625 Y111.173 E.03154
G1 X139.318 Y115.787 E.16174
G1 X138.719 Y116.601 E.03169
G1 X136.412 Y118.908 E.1023
G1 X135.843 Y119.318 E.02199
G1 X131.229 Y121.625 E.16174
G1 X130.251 Y121.856 E.03151
G1 X119.671 Y121.856 E.33173
G1 X118.693 Y121.625 E.03151
G1 X114.078 Y119.318 E.16177
G1 X113.51 Y118.908 E.02196
G1 X111.203 Y116.601 E.1023
G1 X110.682 Y115.922 E.02683
G1 X108.375 Y111.307 E.16177
G1 X108.144 Y110.329 E.03151
G1 X108.144 Y99.671 E.33417
G1 X108.375 Y98.693 E.03151
G1 X110.682 Y94.078 E.16177
G1 X111.16 Y93.455 E.02462
M204 S1000
;WIPE_START
G1 F8640
G1 X111.196 Y93.408 E-.01367
G1 X111.203 Y93.399 E-.00263
G1 X113.51 Y91.092 E-.75334
G1 X113.617 Y91.015 E-.03036
;WIPE_END
G1 Z.6 F720
G1 X114.697 Y96.358 F10800
G1 Z.2 F720
G1 E.8 F2100
M204 S800
G1 F1200
M73 Q1 S31
G1 X115.03 Y95.952 E.01646
G1 X116.741 Y94.369 E.07309
G1 X117.821 Y93.611 E.04137
G1 X118.988 Y92.954 E.04199
G1 X120.219 Y92.414 E.04215
G1 X121.493 Y92.001 E.04199
M73 P1 R31
G1 X122.805 Y91.717 E.04209
G1 X124.139 Y91.564 E.0421
G1 X125.483 Y91.545 E.04214
G1 X126.797 Y91.657 E.04135
G1 X128.095 Y91.897 E.04139
G1 X129.382 Y92.27 E.04201
G1 X130.606 Y92.759 E.04133
G1 X131.778 Y93.367 E.0414
G1 X132.901 Y94.099 E.04203
G1 X133.931 Y94.925 E.0414
G1 X134.876 Y95.85 E.04146
G1 X135.723 Y96.859 E.04131
G1 X136.469 Y97.949 E.04141
G1 X137.113 Y99.124 E.04201
G1 X137.631 Y100.34 E.04144
G1 X138.026 Y101.598 E.04134
G1 X138.297 Y102.891 E.04142
G1 X138.44 Y104.203 E.04138
G1 X138.453 Y105.524 E.04142
G1 X138.334 Y106.859 E.04202
G1 X138.083 Y108.178 E.0421
G1 X137.701 Y109.465 E.04209
G1 X137.194 Y110.707 E.04206
G1 X136.565 Y111.893 E.04209
G1 X135.821 Y113.01 E.04208
G1 X134.97 Y114.048 E.04209
G1 X133.259 Y115.631 E.07309
G1 X132.179 Y116.389 E.04137
G1 X131.009 Y117.048 E.0421
G1 X129.78 Y117.586 E.04206
G1 X128.507 Y117.999 E.04196
G1 X127.195 Y118.283 E.04209
G1 X125.858 Y118.436 E.04219
G1 X124.517 Y118.455 E.04205
G1 X123.203 Y118.343 E.04135
G1 X121.905 Y118.103 E.04139
G1 X120.618 Y117.73 E.04201
G1 X119.391 Y117.239 E.04144
G1 X118.221 Y116.632 E.04133
G1 X117.112 Y115.911 E.04147
G1 X116.069 Y115.074 E.04193
G1 X115.125 Y114.151 E.0414
G1 X114.276 Y113.14 E.04139
G1 X113.521 Y112.035 E.04196
G1 X112.887 Y110.877 E.04139
G1 X112.37 Y109.663 E.04137
G1 X111.974 Y108.402 E.04144
G1 X111.703 Y107.11 E.04139
G1 X111.56 Y105.798 E.04138
G1 X111.547 Y104.476 E.04145
G1 X111.666 Y103.141 E.04202
G1 X111.917 Y101.822 E.0421
G1 X112.299 Y100.535 E.04209
G1 X112.806 Y99.293 E.04206
G1 X113.435 Y98.107 E.04209
G1 X114.179 Y96.99 E.04208
G1 X114.659 Y96.404 E.02375
M204 S1000
G1 X114.659 Y96.404 F10800
G1 X114.95 Y96.643
M204 S800
G1 F1200
G1 X115.315 Y96.199 E.01802
G1 X116.225 Y95.293 E.04026
G1 X118.014 Y93.935 E.07042
G1 X119.148 Y93.295 E.04083
G1 X120.345 Y92.77 E.04098
G1 X121.583 Y92.368 E.04081
G1 X122.858 Y92.09 E.04092
G1 X124.154 Y91.941 E.0409
G1 X125.461 Y91.922 E.04098
G1 X126.738 Y92.03 E.04018
G1 X128 Y92.262 E.04023
G1 X129.251 Y92.623 E.04082
G1 X130.441 Y93.099 E.04019
G1 X131.58 Y93.689 E.04022
G1 X132.672 Y94.399 E.04084
G1 X133.674 Y95.202 E.04026
G1 X134.593 Y96.1 E.04029
G1 X135.417 Y97.08 E.04015
G1 X136.143 Y98.139 E.04026
G1 X136.77 Y99.281 E.04085
G1 X137.274 Y100.462 E.04026
G1 X137.659 Y101.685 E.0402
G1 X137.923 Y102.941 E.04024
G1 X138.064 Y104.234 E.04078
G1 X138.076 Y105.518 E.04026
G1 X137.96 Y106.816 E.04086
G1 X137.714 Y108.098 E.04093
G1 X137.343 Y109.348 E.04088
G1 X136.848 Y110.555 E.0409
G1 X136.236 Y111.708 E.04093
G1 X135.513 Y112.793 E.04088
G1 X134.685 Y113.801 E.0409
G1 X133.775 Y114.707 E.04026
G1 X131.986 Y116.066 E.07044
G1 X130.849 Y116.706 E.04091
G1 X129.655 Y117.23 E.04088
G1 X128.417 Y117.632 E.04081
G1 X127.142 Y117.91 E.04092
G1 X125.843 Y118.059 E.041
G1 X124.539 Y118.078 E.04089
G1 X123.263 Y117.97 E.04015
G1 X122 Y117.738 E.04026
G1 X120.749 Y117.377 E.04082
G1 X119.556 Y116.9 E.04028
G1 X118.419 Y116.311 E.04015
G1 X117.341 Y115.61 E.04032
G1 X116.326 Y114.798 E.04076
G1 X115.408 Y113.901 E.04024
G1 X114.582 Y112.919 E.04023
G1 X113.847 Y111.845 E.04081
G1 X113.231 Y110.721 E.04019
G1 X112.727 Y109.54 E.04026
G1 X112.341 Y108.315 E.04027
G1 X112.077 Y107.06 E.04021
G1 X111.936 Y105.766 E.04081
G1 X111.924 Y104.482 E.04026
G1 X112.04 Y103.184 E.04086
G1 X112.286 Y101.902 E.04093
G1 X112.657 Y100.652 E.04088
G1 X113.152 Y99.445 E.0409
G1 X113.764 Y98.292 E.04093
G1 X114.487 Y97.207 E.04088
G1 X114.912 Y96.69 E.02098
M204 S1000
G1 X114.912 Y96.69 F10800
G1 X115.203 Y96.929
M204 S800
G1 F1200
G1 X115.601 Y96.446 E.01962
G1 X117.188 Y94.976 E.06783
G1 X118.208 Y94.258 E.03911
G1 X119.309 Y93.637 E.03963
G1 X120.471 Y93.125 E.03981
G1 X121.673 Y92.734 E.03963
G1 X122.91 Y92.464 E.0397
G1 X124.169 Y92.318 E.03974
G1 X125.439 Y92.298 E.03982
G1 X126.679 Y92.402 E.03902
G1 X127.904 Y92.627 E.03905
G1 X129.12 Y92.977 E.03967
G1 X130.276 Y93.438 E.03902
G1 X131.383 Y94.01 E.03907
G1 X132.444 Y94.699 E.03967
G1 X133.417 Y95.478 E.03908
G1 X134.311 Y96.35 E.03916
G1 X135.123 Y97.316 E.03957
G1 X135.827 Y98.344 E.03907
G1 X136.435 Y99.454 E.03968
G1 X136.924 Y100.601 E.0391
G1 X137.297 Y101.789 E.03904
G1 X137.552 Y103.009 E.03908
G1 X137.688 Y104.265 E.03961
G1 X137.699 Y105.512 E.0391
G1 X137.585 Y106.773 E.0397
G1 X137.346 Y108.017 E.03972
G1 X136.984 Y109.231 E.03972
G1 X136.503 Y110.404 E.03975
G1 X135.908 Y111.522 E.03971
G1 X135.204 Y112.576 E.03974
G1 X134.399 Y113.554 E.03972
G1 X132.812 Y115.024 E.06783
G1 X131.792 Y115.742 E.03911
G1 X130.689 Y116.365 E.03972
G1 X129.529 Y116.875 E.03973
G1 X128.327 Y117.266 E.03963
G1 X127.089 Y117.536 E.03973
G1 X125.828 Y117.682 E.0398
G1 X124.561 Y117.702 E.03973
G1 X123.321 Y117.598 E.03902
G1 X122.095 Y117.373 E.03908
G1 X120.88 Y117.023 E.03964
G1 X119.721 Y116.561 E.03912
G1 X118.616 Y115.989 E.03901
G1 X117.569 Y115.31 E.03913
G1 X116.582 Y114.522 E.0396
G1 X115.69 Y113.651 E.03909
G1 X114.888 Y112.698 E.03905
G1 X114.173 Y111.655 E.03965
G1 X113.574 Y110.564 E.03902
G1 X113.084 Y109.418 E.03908
G1 X112.703 Y108.211 E.03969
G1 X112.448 Y106.992 E.03905
G1 X112.312 Y105.735 E.03964
G1 X112.301 Y104.488 E.0391
G1 X112.415 Y103.227 E.0397
G1 X112.654 Y101.983 E.03972
G1 X113.016 Y100.769 E.03972
G1 X113.497 Y99.596 E.03975
G1 X114.092 Y98.478 E.03971
G1 X114.796 Y97.424 E.03974
G1 X115.165 Y96.975 E.01822
M204 S1000
G1 X115.165 Y96.975 F10800
G1 X115.456 Y97.215
M204 S800
G1 F1200
G1 X115.886 Y96.693 E.0212
G1 X116.745 Y95.839 E.03798
G1 X118.402 Y94.582 E.06521
G1 X119.469 Y93.978 E.03844
G1 X120.597 Y93.481 E.03865
G1 X121.763 Y93.101 E.03845
G1 X122.964 Y92.837 E.03856
G1 X124.185 Y92.695 E.03854
G1 X125.417 Y92.675 E.03863
G1 X126.638 Y92.777 E.03842
G1 X127.827 Y92.996 E.03791
G1 X129.006 Y93.337 E.03848
G1 X130.128 Y93.785 E.03788
G1 X131.201 Y94.34 E.03788
G1 X132.231 Y95.01 E.03853
G1 X133.174 Y95.766 E.0379
G1 X134.041 Y96.613 E.038
G1 X134.828 Y97.551 E.03839
G1 X135.51 Y98.549 E.0379
G1 X136.1 Y99.626 E.0385
G1 X136.573 Y100.74 E.03795
G1 X136.934 Y101.893 E.03788
G1 X137.181 Y103.077 E.03792
G1 X137.312 Y104.296 E.03844
G1 X137.322 Y105.505 E.03791
G1 X137.21 Y106.729 E.03854
G1 X136.977 Y107.936 E.03854
G1 X136.625 Y109.114 E.03855
G1 X136.158 Y110.251 E.03854
G1 X135.58 Y111.336 E.03855
G1 X134.896 Y112.358 E.03856
G1 X134.114 Y113.307 E.03856
G1 X133.255 Y114.161 E.03798
G1 X131.598 Y115.418 E.06521
G1 X130.528 Y116.024 E.03856
G1 X129.403 Y116.519 E.03854
G1 X128.237 Y116.9 E.03846
G1 X127.036 Y117.163 E.03855
G1 X125.812 Y117.305 E.03864
G1 X124.583 Y117.325 E.03854
G1 X123.38 Y117.225 E.03785
G1 X122.19 Y117.008 E.03793
G1 X121.01 Y116.669 E.03849
G1 X119.886 Y116.221 E.03794
G1 X118.798 Y115.659 E.0384
G1 X117.782 Y114.999 E.03799
G1 X116.825 Y114.233 E.03843
G1 X115.96 Y113.388 E.03791
G1 X115.182 Y112.463 E.0379
G1 X114.489 Y111.45 E.03848
G1 X113.909 Y110.391 E.03786
G1 X113.434 Y109.279 E.03791
G1 X113.066 Y108.107 E.03852
G1 X112.819 Y106.925 E.03786
G1 X112.688 Y105.704 E.0385
G1 X112.678 Y104.495 E.03791
G1 X112.79 Y103.271 E.03854
G1 X113.023 Y102.064 E.03854
G1 X113.375 Y100.886 E.03855
G1 X113.842 Y99.749 E.03854
G1 X114.42 Y98.664 E.03855
G1 X115.104 Y97.642 E.03856
G1 X115.418 Y97.261 E.01548
M204 S1000
G1 X115.418 Y97.261 F10800
G1 X115.708 Y97.501
M204 S800
G1 F1200
G1 X116.17 Y96.94 E.02279
G1 X117.636 Y95.583 E.06263
G1 X118.596 Y94.905 E.03685
G1 X119.63 Y94.319 E.03726
G1 X120.723 Y93.836 E.03747
G1 X121.853 Y93.467 E.03727
G1 X123.017 Y93.211 E.03737
G1 X124.201 Y93.072 E.03738
G1 X125.395 Y93.052 E.03744
G1 X126.579 Y93.15 E.03725
G1 X127.732 Y93.361 E.03675
G1 X128.875 Y93.691 E.0373
G1 X129.963 Y94.124 E.03672
G1 X131.003 Y94.662 E.03671
G1 X132.003 Y95.311 E.03738
G1 X132.917 Y96.043 E.03672
G1 X133.77 Y96.876 E.03738
G1 X134.522 Y97.771 E.03665
G1 X135.184 Y98.739 E.03677
G1 X135.756 Y99.783 E.03733
G1 X136.216 Y100.862 E.03678
G1 X136.567 Y101.979 E.03671
G1 X136.81 Y103.144 E.03731
G1 X136.936 Y104.327 E.0373
G1 X136.945 Y105.499 E.03675
G1 X136.836 Y106.685 E.03734
G1 X136.609 Y107.855 E.03737
G1 X136.267 Y108.997 E.03738
G1 X135.813 Y110.099 E.03737
G1 X135.252 Y111.15 E.03735
G1 X134.588 Y112.14 E.03738
G1 X133.83 Y113.06 E.03738
G1 X132.364 Y114.417 E.06263
G1 X131.404 Y115.095 E.03685
G1 X130.367 Y115.683 E.03738
G1 X129.277 Y116.164 E.03736
G1 X128.147 Y116.533 E.03727
G1 X126.983 Y116.789 E.03737
G1 X125.796 Y116.928 E.03747
G1 X124.605 Y116.948 E.03735
G1 X123.421 Y116.85 E.03725
G1 X122.268 Y116.638 E.03676
G1 X121.124 Y116.309 E.03732
G1 X120.034 Y115.875 E.03679
G1 X118.98 Y115.328 E.03723
G1 X117.996 Y114.688 E.0368
G1 X117.068 Y113.945 E.03727
G1 X116.231 Y113.125 E.03674
G1 X115.477 Y112.228 E.03674
M73 Q2 S31
G1 X114.806 Y111.245 E.03732
G1 X114.244 Y110.218 E.03671
G1 X113.785 Y109.14 E.03674
G1 X113.428 Y108.003 E.03737
G1 X113.19 Y106.857 E.0367
G1 X113.064 Y105.674 E.0373
M73 P2 R31
G1 X113.055 Y104.501 E.03678
G1 X113.164 Y103.315 E.03734
G1 X113.391 Y102.145 E.03737
G1 X113.733 Y101.003 E.03738
G1 X114.187 Y99.901 E.03737
G1 X114.748 Y98.85 E.03735
G1 X115.412 Y97.86 E.03738
G1 X115.67 Y97.547 E.01272
M204 S1000
G1 X115.67 Y97.547 F10800
G1 X115.96 Y97.787
M204 S800
G1 F1200
G1 X116.455 Y97.188 E.02436
G1 X117.265 Y96.386 E.03574
G1 X118.79 Y95.228 E.06004
G1 X119.792 Y94.66 E.03611
G1 X120.85 Y94.192 E.03627
G1 X121.944 Y93.833 E.0361
G1 X123.071 Y93.584 E.03619
G1 X124.217 Y93.449 E.03618
G1 X125.374 Y93.428 E.03628
G1 X126.521 Y93.522 E.03608
G1 X127.637 Y93.726 E.03557
G1 X128.745 Y94.045 E.03615
G1 X129.798 Y94.463 E.03552
G1 X130.806 Y94.983 E.03556
G1 X131.775 Y95.611 E.0362
G1 X132.661 Y96.319 E.03556
G1 X133.488 Y97.126 E.03623
G1 X134.227 Y98.007 E.03605
G1 X134.867 Y98.944 E.03558
G1 X135.421 Y99.955 E.03615
G1 X135.865 Y101.001 E.03563
G1 X136.204 Y102.083 E.03555
G1 X136.439 Y103.212 E.03616
G1 X136.56 Y104.357 E.0361
G1 X136.567 Y105.492 E.03559
G1 X136.461 Y106.641 E.03618
G1 X136.241 Y107.774 E.03619
G1 X135.909 Y108.879 E.03618
G1 X135.468 Y109.946 E.0362
G1 X134.924 Y110.964 E.03619
G1 X134.281 Y111.922 E.03618
G1 X133.545 Y112.812 E.03621
G1 X132.735 Y113.614 E.03574
G1 X131.209 Y114.772 E.06006
G1 X130.206 Y115.342 E.03617
G1 X129.15 Y115.808 E.03619
G1 X128.056 Y116.167 E.0361
G1 X126.929 Y116.416 E.03619
G1 X125.78 Y116.552 E.03628
G1 X124.626 Y116.572 E.03619
G1 X123.479 Y116.477 E.03609
G1 X122.363 Y116.273 E.03557
G1 X121.254 Y115.955 E.03617
G1 X120.199 Y115.535 E.0356
G1 X119.177 Y115.007 E.03607
G1 X118.224 Y114.388 E.03563
G1 X117.325 Y113.668 E.03611
G1 X116.513 Y112.875 E.03559
G1 X115.783 Y112.007 E.03556
G1 X115.132 Y111.056 E.03614
G1 X114.587 Y110.062 E.03554
G1 X114.135 Y109.001 E.03616
G1 X113.791 Y107.9 E.03617
G1 X113.561 Y106.79 E.03554
G1 X113.44 Y105.643 E.03616
G1 X113.433 Y104.508 E.03559
G1 X113.539 Y103.359 E.03618
G1 X113.759 Y102.226 E.03619
G1 X114.091 Y101.121 E.03618
G1 X114.532 Y100.054 E.0362
G1 X115.076 Y99.036 E.03619
G1 X115.719 Y98.078 E.03618
G1 X115.922 Y97.833 E.00998
M204 S1000
G1 X115.922 Y97.833 F10800
G1 X116.212 Y98.073
M204 S800
G1 F1200
G1 X116.739 Y97.436 E.02592
G1 X118.085 Y96.19 E.05751
G1 X118.985 Y95.551 E.03461
G1 X119.953 Y95.001 E.03491
G1 X120.976 Y94.547 E.03509
G1 X122.035 Y94.199 E.03495
G1 X123.125 Y93.957 E.03501
G1 X124.234 Y93.825 E.03502
G1 X125.353 Y93.805 E.03509
G1 X126.463 Y93.895 E.03492
G1 X127.542 Y94.092 E.03439
G1 X128.615 Y94.399 E.03499
G1 X129.634 Y94.803 E.03437
G1 X130.609 Y95.305 E.03438
G1 X131.547 Y95.912 E.03503
G1 X132.405 Y96.596 E.0344
G1 X133.205 Y97.376 E.03503
G1 X133.921 Y98.228 E.03489
G1 X134.541 Y99.133 E.0344
G1 X135.078 Y100.112 E.03501
G1 X135.515 Y101.14 E.03502
G1 X135.842 Y102.186 E.03436
G1 X136.068 Y103.279 E.035
G1 X136.184 Y104.387 E.03493
G1 X136.19 Y105.484 E.0344
G1 X136.086 Y106.596 E.03502
G1 X135.872 Y107.692 E.03501
G1 X135.55 Y108.761 E.03501
G1 X135.123 Y109.793 E.03502
